bunk-bed.svg

<svg fill="currentColor" viewBox="0 0 24 24"><path d="M1 2v21h2v-2h18v2h2V7c0-2.21-1.79-4-4-4h-9v5H3V2m3.5 0A2.5 2.5 0 0 0 4 4.5 2.5 2.5 0 0 0 6.5 7 2.5 2.5 0 0 0 9 4.5 2.5 2.5 0 0 0 6.5 2M3 11h18v2.56c-.59-.35-1.27-.56-2-.56h-9v5H3m3.5-6A2.5 2.5 0 0 0 4 14.5 2.5 2.5 0 0 0 6.5 17 2.5 2.5 0 0 0 9 14.5 2.5 2.5 0 0 0 6.5 12"/></svg>

<svg  viewBox="0 0 24 24" fill="currentColor"><path  d="M1 2V23H3V21H21V23H23V7C23 4.79 21.21 3 19 3H10V8H3V2M6.5 2A2.5 2.5 0 0 0 4 4.5A2.5 2.5 0 0 0 6.5 7A2.5 2.5 0 0 0 9 4.5A2.5 2.5 0 0 0 6.5 2M3 11H21V13.56C20.41 13.21 19.73 13 19 13H10V18H3M6.5 12A2.5 2.5 0 0 0 4 14.5A2.5 2.5 0 0 0 6.5 17A2.5 2.5 0 0 0 9 14.5A2.5 2.5 0 0 0 6.5 12Z"/></svg>
